Numix-GalliumOS/24/status/dropboxstatus-idle.svg

<?xml version="1.0" encoding="UTF-8" standalone="no"?>
<svg
   xmlns:dc="http://purl.org/dc/elements/1.1/"
   xmlns:cc="http://creativecommons.org/ns#"
   xmlns:rdf="http://www.w3.org/1999/02/22-rdf-syntax-ns#"
   xmlns:svg="http://www.w3.org/2000/svg"
   xmlns="http://www.w3.org/2000/svg"
   xmlns:sodipodi="http://sodipodi.sourceforge.net/DTD/sodipodi-0.dtd"
   xmlns:inkscape="http://www.inkscape.org/namespaces/inkscape"
   width="24"
   height="24"
   viewBox="0 0 24 24"
   id="svg3019"
   version="1.1"
   inkscape:version="0.91 r"
   sodipodi:docname="dropboxstatus-idle.svg">
  <metadata
     id="metadata3031">
    <rdf:RDF>
      <cc:Work
         rdf:about="">
        <dc:format>image/svg+xml</dc:format>
        <dc:type
           rdf:resource="http://purl.org/dc/dcmitype/StillImage" />
      </cc:Work>
    </rdf:RDF>
  </metadata>
  <defs
     id="defs3029" />
  <sodipodi:namedview
     pagecolor="#ffffff"
     bordercolor="#666666"
     borderopacity="1"
     objecttolerance="10"
     gridtolerance="10"
     guidetolerance="10"
     inkscape:pageopacity="0"
     inkscape:pageshadow="2"
     inkscape:window-width="1366"
     inkscape:window-height="747"
     id="namedview3027"
     showgrid="false"
     inkscape:zoom="13.906434"
     inkscape:cx="0.90760166"
     inkscape:cy="15.761215"
     inkscape:window-x="0"
     inkscape:window-y="21"
     inkscape:window-maximized="1"
     inkscape:current-layer="svg3019" />
  <path
     style="fill:#ececec;fill-opacity:1"
     inkscape:connector-curvature="0"
     id="path3025"
     d="M 7.4982094,4.5 3,8.0019536 7.4982094,11.002604 3,15.002279 12,21 21,15.002279 16.501791,11.002604 21,8.0019536 16.501791,4.5 12,8.0019536 Z" />
</svg>

<svg xmlns="http://www.w3.org/2000/svg" viewBox="0 0 24 24">
 <path d="m 7.498 4.5 -4.498 3.502 4.498 3 -4.498 4 9 5.998 9 -5.998 -4.498 -4 4.498 -3 -4.498 -3.502 -4.502 3.502" style="fill:#ececec;fill-opacity:1"/>
</svg>
